{
 "compressionlevel": -1,
 "height": 17,
 "infinite": false,
 "orientation": "orthogonal",
 "renderorder": "right-down",
 "tileheight": 16,
 "tilewidth": 16,
 "type": "map",
 "width": 150,
 "layers": [
  {
   "data": [
    1,
    1,
    1,
    1,
    1,
    1,
    1,
    1,
    1,
    1,
    1,
    1,
    1,
    1,
    1,
    1,
    1,
    1,
    1,
    1,
    1,
    1,
    1,
    1,
    1,
    1,
    1,
    1,
    1,
    1,
    1,
    1,
    1,
    1,
    1,
    1,
    1,
    1,
    1,
    1,
    1,
    1,
    1,
    1,
    1,
    1,
    1,
    1,
    1,
    1,
    1,
    1,
    1,
    1,
    1,
    1,
    1,
    1,
    1,
    1,
    1,
    1,
    1,
    1,
    1,
    1,
    1,
    1,
    1,
    1,
    1,
    1,
    1,
    1,
    1,
    1,
    1,
    1,
    1,
    1,
    1,
    1,
    1,
    1,
    1,
    1,
    1,
    1,
    1,
    1,
    1,
    1,
    1,
    1,
    1,
    1,
    1,
    1,
    1,
    1,
    1,
    1,
    1,
    1,
    1,
    1,
    1,
    1,
    1,
    1,
    1,
    1,
    1,
    1,
    1,
    1,
    1,
    1,
    1,
    1,
    1,
    1,
    1,
    1,
    1,
    1,
    1,
    1,
    1,
    1,
    1,
    1,
    1,
    1,
    1,
    1,
    1,
    1,
    1,
    1,
    1,
    1,
    1,
    1,
    1,
    1,
    1,
    1,
    1,
    1,
    2,
    1,
    1,
    1,
    2,
    2,
    2,
    2,
    2,
    2,
    2,
    2,
    2,
    2,
    2,
    2,
    2,
    2,
    2,
    2,
    2,
    2,
    2,
    2,
    2,
    2,
    2,
    2,
    2,
    2,
    2,
    2,
    2,
    2,
    2,
    2,
    2,
    2,
    2,
    2,
    2,
    2,
    2,
    2,
    2,
    2,
    2,
    2,
    2,
    2,
    2,
    2,
    1,
    2,
    1,
    1,
    1,
    1,
    1,
    1,
    1,
    1,
    1,
    1,
    1,
    2,
    1,
    1,
    1,
    1,
    1,
    1,
    1,
    1,
    1,
    2,
    4,
    4,
    4,
    4,
    4,
    4,
    4,
    4,
    4,
    2,
    2,
    2,
    2,
    2,
    2,
    2,
    2,
    2,
    2,
    2,
    2,
    2,
    2,
    2,
    2,
    2,
    2,
    2,
    2,
    2,
    2,
    2,
    2,
    1,
    1,
    1,
    1,
    1,
    1,
    1,
    1,
    1,
    1,
    1,
    1,
    2,
    2,
    2,
    2,
    2,
    2,
    2,
    2,
    2,
    2,
    1,
    1,
    2,
    2,
    2,
    2,
    2,
    2,
    2,
    2,
    2,
    2,
    2,
    2,
    2,
    2,
    2,
    2,
    2,
    2,
    1,
    1,
    1,
    1,
    1,
    1,
    1,
    1,
    1,
    1,
    1,
    1,
    1,
    1,
    1,
    1,
    1,
    1,
    1,
    1,
    1,
    1,
    1,
    1,
    1,
    1,
    1,
    1,
    1,
    1,
    1,
    1,
    1,
    1,
    1,
    1,
    1,
    1,
    1,
    1,
    1,
    1,
    1,
    1,
    1,
    1,
    1,
    1,
    1,
    1,
    1,
    1,
    1,
    1,
    1,
    1,
    1,
    1,
    1,
    1,
    1,
    1,
    1,
    1,
    1,
    1,
    1,
    1,
    1,
    1,
    1,
    1,
    1,
    1,
    1,
    1,
    1,
    1,
    1,
    1,
    1,
    1,
    1,
    4,
    1,
    1,
    1,
    1,
    1,
    1,
    1,
    1,
    1,
    1,
    1,
    1,
    1,
    1,
    1,
    1,
    1,
    1,
    1,
    1,
    1,
    1,
    1,
    1,
    1,
    1,
    1,
    1,
    1,
    1,
    1,
    1,
    1,
    1,
    1,
    1,
    1,
    1,
    1,
    1,
    1,
    1,
    1,
    1,
    1,
    1,
    1,
    1,
    2,
    2,
    2,
    2,
    2,
    2,
    2,
    2,
    1,
    1,
    1,
    1,
    1,
    1,
    1,
    1,
    1,
    2,
    1,
    1,
    1,
    1,
    1,
    1,
    1,
    1,
    1,
    1,
    1,
    1,
    1,
    1,
    1,
    1,
    1,
    1,
    1,
    1,
    1,
    1,
    1,
    1,
    1,
    1,
    1,
    1,
    1,
    1,
    1,
    1,
    1,
    1,
    1,
    1,
    1,
    1,
    1,
    1,
    1,
    1,
    1,
    1,
    1,
    1,
    1,
    1,
    1,
    1,
    1,
    1,
    1,
    1,
    1,
    1,
    1,
    1,
    1,
    1,
    1,
    1,
    1,
    1,
    1,
    1,
    1,
    1,
    1,
    1,
    1,
    1,
    1,
    1,
    1,
    1,
    1,
    1,
    1,
    1,
    1,
    1,
    1,
    4,
    1,
    1,
    1,
    1,
    1,
    1,
    1,
    1,
    1,
    1,
    1,
    1,
    1,
    1,
    1,
    1,
    1,
    1,
    1,
    1,
    1,
    1,
    1,
    1,
    1,
    1,
    1,
    1,
    1,
    1,
    1,
    1,
    1,
    1,
    1,
    1,
    1,
    1,
    1,
    1,
    1,
    1,
    1,
    1,
    1,
    1,
    1,
    1,
    2,
    2,
    2,
    2,
    2,
    2,
    2,
    2,
    1,
    1,
    1,
    1,
    1,
    1,
    1,
    1,
    1,
    2,
    1,
    1,
    1,
    1,
    1,
    1,
    1,
    1,
    1,
    1,
    1,
    1,
    1,
    1,
    1,
    1,
    1,
    1,
    1,
    1,
    1,
    1,
    1,
    1,
    1,
    1,
    1,
    1,
    1,
    1,
    1,
    1,
    1,
    1,
    1,
    1,
    1,
    1,
    1,
    1,
    1,
    1,
    1,
    1,
    1,
    1,
    1,
    1,
    1,
    1,
    1,
    1,
    1,
    1,
    1,
    1,
    1,
    1,
    1,
    1,
    1,
    1,
    1,
    1,
    1,
    1,
    1,
    1,
    1,
    1,
    1,
    1,
    1,
    1,
    1,
    1,
    1,
    1,
    1,
    1,
    1,
    1,
    1,
    4,
    1,
    1,
    1,
    1,
    1,
    1,
    1,
    1,
    1,
    1,
    1,
    1,
    1,
    1,
    1,
    1,
    1,
    1,
    1,
    1,
    1,
    1,
    1,
    1,
    1,
    1,
    1,
    1,
    1,
    1,
    1,
    1,
    1,
    1,
    1,
    1,
    1,
    1,
    1,
    1,
    1,
    1,
    1,
    1,
    1,
    1,
    1,
    1,
    2,
    2,
    2,
    2,
    2,
    2,
    2,
    2,
    1,
    1,
    1,
    1,
    1,
    1,
    1,
    1,
    1,
    2,
    1,
    1,
    1,
    1,
    1,
    1,
    1,
    1,
    1,
    1,
    1,
    1,
    1,
    1,
    1,
    1,
    1,
    1,
    1,
    1,
    1,
    1,
    1,
    1,
    1,
    1,
    1,
    1,
    1,
    1,
    1,
    1,
    1,
    1,
    1,
    1,
    1,
    1,
    1,
    1,
    1,
    1,
    1,
    1,
    1,
    1,
    1,
    1,
    1,
    1,
    1,
    1,
    1,
    1,
    1,
    1,
    1,
    1,
    1,
    1,
    1,
    1,
    1,
    1,
    1,
    1,
    1,
    1,
    1,
    1,
    1,
    1,
    1,
    1,
    1,
    1,
    1,
    1,
    3,
    1,
    1,
    1,
    1,
    4,
    1,
    1,
    1,
    1,
    1,
    1,
    1,
    1,
    1,
    1,
    1,
    1,
    1,
    1,
    1,
    1,
    1,
    1,
    24,
    25,
    26,
    27,
    1,
    1,
    1,
    1,
    1,
    1,
    1,
    1,
    1,
    1,
    1,
    1,
    1,
    1,
    1,
    1,
    1,
    1,
    1,
    1,
    1,
    1,
    1,
    1,
    1,
    1,
    2,
    2,
    2,
    2,
    2,
    2,
    2,
    2,
    1,
    1,
    1,
    1,
    1,
    1,
    1,
    1,
    1,
    2,
    1,
    1,
    1,
    1,
    1,
    1,
    1,
    1,
    1,
    1,
    1,
    1,
    1,
    1,
    1,
    1,
    1,
    1,
    1,
    1,
    1,
    1,
    1,
    1,
    1,
    1,
    1,
    1,
    1,
    1,
    1,
    1,
    1,
    1,
    1,
    1,
    1,
    1,
    1,
    1,
    1,
    1,
    1,
    1,
    1,
    1,
    1,
    1,
    1,
    1,
    1,
    1,
    1,
    1,
    1,
    1,
    1,
    1,
    1,
    1,
    1,
    1,
    1,
    1,
    1,
    1,
    1,
    1,
    1,
    1,
    1,
    1,
    1,
    1,
    1,
    1,
    1,
    1,
    1,
    1,
    1,
    1,
    1,
    4,
    1,
    1,
    1,
    1,
    1,
    1,
    1,
    1,
    1,
    1,
    1,
    1,
    1,
    1,
    1,
    1,
    1,
    1,
    28,
    29,
    30,
    31,
    1,
    1,
    1,
    1,
    1,
    1,
    1,
    1,
    1,
    1,
    1,
    1,
    1,
    1,
    1,
    1,
    1,
    1,
    1,
    1,
    1,
    1,
    1,
    1,
    1,
    1,
    2,
    2,
    2,
    2,
    2,
    2,
    2,
    2,
    1,
    1,
    1,
    1,
    1,
    1,
    1,
    1,
    1,
    2,
    1,
    1,
    1,
    1,
    1,
    1,
    1,
    1,
    1,
    1,
    1,
    1,
    1,
    1,
    1,
    1,
    1,
    1,
    1,
    1,
    1,
    1,
    1,
    1,
    1,
    1,
    1,
    1,
    1,
    1,
    1,
    1,
    1,
    1,
    1,
    1,
    1,
    1,
    1,
    1,
    1,
    1,
    1,
    1,
    1,
    1,
    1,
    1,
    1,
    1,
    1,
    1,
    1,
    1,
    1,
    1,
    1,
    1,
    1,
    1,
    1,
    1,
    1,
    1,
    1,
    1,
    1,
    1,
    1,
    1,
    1,
    1,
    1,
    1,
    1,
    1,
    1,
    1,
    1,
    1,
    1,
    1,
    1,
    1,
    1,
    1,
    1,
    1,
    1,
    1,
    1,
    1,
    1,
    1,
    1,
    1,
    1,
    1,
    1,
    1,
    1,
    1,
    1,
    1,
    1,
    1,
    1,
    1,
    1,
    1,
    1,
    1,
    1,
    1,
    1,
    1,
    1,
    1,
    1,
    1,
    1,
    1,
    1,
    1,
    1,
    1,
    1,
    1,
    1,
    1,
    1,
    1,
    2,
    2,
    2,
    2,
    2,
    2,
    2,
    2,
    1,
    1,
    1,
    1,
    1,
    1,
    1,
    1,
    1,
    2,
    1,
    1,
    1,
    1,
    1,
    1,
    1,
    1,
    1,
    1,
    1,
    1,
    1,
    1,
    1,
    1,
    1,
    1,
    1,
    1,
    1,
    1,
    1,
    1,
    1,
    1,
    1,
    1,
    1,
    1,
    1,
    1,
    1,
    1,
    1,
    1,
    1,
    1,
    1,
    1,
    1,
    1,
    1,
    1,
    1,
    1,
    1,
    1,
    1,
    1,
    1,
    1,
    1,
    1,
    1,
    1,
    1,
    1,
    1,
    1,
    1,
    1,
    1,
    1,
    1,
    1,
    1,
    1,
    1,
    1,
    1,
    1,
    1,
    1,
    1,
    1,
    1,
    1,
    1,
    1,
    2,
    1,
    1,
    1,
    1,
    2,
    1,
    1,
    1,
    1,
    1,
    1,
    1,
    1,
    1,
    1,
    1,
    1,
    1,
    1,
    1,
    1,
    1,
    1,
    1,
    1,
    1,
    1,
    1,
    1,
    1,
    1,
    1,
    1,
    1,
    1,
    1,
    1,
    1,
    1,
    1,
    1,
    1,
    1,
    1,
    1,
    1,
    1,
    1,
    1,
    1,
    1,
    2,
    2,
    2,
    2,
    2,
    2,
    2,
    2,
    1,
    1,
    1,
    1,
    1,
    1,
    1,
    1,
    1,
    2,
    1,
    1,
    1,
    1,
    1,
    1,
    1,
    3,
    3,
    1,
    1,
    1,
    1,
    1,
    1,
    1,
    1,
    1,
    1,
    4,
    1,
    1,
    1,
    1,
    4,
    1,
    1,
    1,
    1,
    1,
    1,
    1,
    1,
    1,
    1,
    1,
    1,
    1,
    1,
    1,
    1,
    1,
    1,
    1,
    1,
    1,
    1,
    1,
    1,
    1,
    1,
    1,
    1,
    1,
    1,
    1,
    1,
    1,
    1,
    1,
    1,
    1,
    1,
    1,
    1,
    1,
    1,
    1,
    1,
    1,
    1,
    1,
    1,
    1,
    1,
    1,
    1,
    1,
    1,
    1,
    2,
    4,
    4,
    4,
    4,
    2,
    2,
    1,
    1,
    1,
    1,
    1,
    1,
    1,
    1,
    1,
    1,
    1,
    1,
    1,
    1,
    1,
    1,
    1,
    1,
    1,
    1,
    1,
    1,
    1,
    1,
    1,
    1,
    1,
    1,
    1,
    1,
    1,
    1,
    1,
    2,
    2,
    1,
    1,
    1,
    1,
    1,
    2,
    2,
    2,
    2,
    2,
    2,
    2,
    2,
    2,
    2,
    2,
    2,
    2,
    1,
    1,
    1,
    1,
    1,
    1,
    1,
    1,
    1,
    2,
    1,
    1,
    1,
    1,
    1,
    1,
    1,
    1,
    1,
    1,
    1,
    1,
    1,
    1,
    1,
    1,
    1,
    1,
    1,
    4,
    1,
    1,
    1,
    1,
    4,
    1,
    4,
    1,
    1,
    1,
    1,
    1,
    1,
    1,
    1,
    1,
    1,
    1,
    1,
    1,
    1,
    1,
    1,
    1,
    1,
    1,
    1,
    1,
    1,
    1,
    1,
    1,
    1,
    1,
    1,
    1,
    1,
    1,
    1,
    1,
    1,
    1,
    1,
    1,
    1,
    1,
    1,
    1,
    1,
    1,
    1,
    1,
    1,
    1,
    1,
    1,
    1,
    1,
    1,
    2,
    2,
    4,
    4,
    4,
    4,
    2,
    2,
    2,
    1,
    1,
    1,
    1,
    1,
    1,
    1,
    1,
    1,
    1,
    1,
    1,
    1,
    1,
    1,
    1,
    1,
    1,
    1,
    2,
    1,
    1,
    1,
    1,
    1,
    1,
    1,
    1,
    1,
    1,
    1,
    1,
    2,
    2,
    1,
    1,
    1,
    1,
    1,
    2,
    2,
    2,
    2,
    2,
    2,
    2,
    2,
    2,
    2,
    2,
    2,
    2,
    1,
    1,
    1,
    1,
    1,
    1,
    1,
    1,
    1,
    2,
    1,
    1,
    1,
    1,
    1,
    1,
    1,
    1,
    1,
    1,
    1,
    1,
    1,
    1,
    1,
    4,
    1,
    4,
    1,
    4,
    1,
    1,
    1,
    1,
    4,
    1,
    4,
    1,
    4,
    1,
    1,
    1,
    1,
    1,
    1,
    1,
    1,
    1,
    1,
    1,
    1,
    1,
    1,
    1,
    1,
    1,
    1,
    1,
    1,
    1,
    1,
    1,
    1,
    32,
    33,
    1,
    1,
    1,
    1,
    1,
    1,
    1,
    1,
    1,
    1,
    1,
    1,
    1,
    1,
    1,
    1,
    1,
    1,
    1,
    1,
    1,
    1,
    1,
    2,
    2,
    2,
    4,
    4,
    4,
    4,
    2,
    2,
    2,
    2,
    1,
    1,
    1,
    1,
    1,
    1,
    2,
    1,
    1,
    1,
    1,
    1,
    1,
    1,
    1,
    1,
    1,
    2,
    2,
    1,
    1,
    1,
    1,
    1,
    1,
    1,
    1,
    1,
    1,
    1,
    1,
    2,
    2,
    1,
    1,
    1,
    1,
    1,
    2,
    2,
    2,
    2,
    2,
    2,
    2,
    2,
    2,
    2,
    2,
    2,
    2,
    1,
    1,
    1,
    1,
    1,
    1,
    1,
    1,
    1,
    2,
    1,
    1,
    1,
    1,
    1,
    1,
    1,
    1,
    1,
    1,
    1,
    1,
    1,
    4,
    1,
    4,
    1,
    4,
    1,
    4,
    1,
    1,
    1,
    1,
    4,
    1,
    4,
    1,
    4,
    1,
    4,
    1,
    1,
    1,
    1,
    1,
    1,
    1,
    1,
    1,
    1,
    1,
    1,
    1,
    1,
    1,
    1,
    1,
    1,
    1,
    1,
    1,
    1,
    34,
    35,
    1,
    1,
    1,
    1,
    1,
    1,
    1,
    1,
    1,
    1,
    1,
    1,
    1,
    1,
    1,
    1,
    1,
    1,
    1,
    1,
    1,
    1,
    2,
    2,
    2,
    2,
    4,
    4,
    4,
    4,
    2,
    2,
    2,
    2,
    2,
    1,
    1,
    1,
    1,
    2,
    2,
    2,
    1,
    1,
    1,
    1,
    1,
    1,
    1,
    1,
    2,
    2,
    2,
    1,
    1,
    1,
    1,
    1,
    1,
    1,
    1,
    1,
    1,
    1,
    1,
    2,
    2,
    1,
    1,
    1,
    1,
    1,
    2,
    2,
    2,
    2,
    2,
    2,
    2,
    2,
    2,
    2,
    2,
    2,
    2,
    1,
    1,
    1,
    1,
    1,
    1,
    1,
    1,
    1,
    5,
    5,
    1,
    5,
    5,
    5,
    5,
    5,
    5,
    5,
    5,
    5,
    5,
    5,
    5,
    5,
    5,
    5,
    5,
    5,
    5,
    5,
    5,
    5,
    1,
    5,
    5,
    5,
    5,
    5,
    5,
    5,
    5,
    5,
    5,
    5,
    5,
    5,
    5,
    5,
    5,
    5,
    5,
    1,
    1,
    1,
    5,
    5,
    5,
    1,
    1,
    1,
    5,
    5,
    5,
    5,
    5,
    5,
    1,
    1,
    5,
    5,
    1,
    1,
    1,
    1,
    5,
    5,
    5,
    5,
    5,
    5,
    1,
    1,
    1,
    5,
    5,
    5,
    5,
    5,
    5,
    5,
    5,
    5,
    5,
    5,
    5,
    5,
    5,
    5,
    5,
    5,
    5,
    5,
    5,
    5,
    5,
    5,
    5,
    5,
    5,
    5,
    5,
    5,
    5,
    5,
    5,
    5,
    5,
    1,
    1,
    1,
    1,
    1,
    1,
    1,
    1,
    1,
    1,
    1,
    1,
    2,
    2,
    1,
    1,
    1,
    1,
    1,
    2,
    2,
    2,
    2,
    2,
    2,
    2,
    2,
    2,
    2,
    2,
    2,
    2,
    5,
    5,
    5,
    5,
    5,
    5,
    5,
    5,
    5,
    6,
    6,
    1,
    6,
    6,
    6,
    6,
    6,
    6,
    6,
    6,
    6,
    6,
    6,
    6,
    6,
    6,
    6,
    6,
    6,
    6,
    6,
    6,
    6,
    1,
    6,
    6,
    6,
    6,
    6,
    6,
    6,
    6,
    6,
    6,
    6,
    6,
    6,
    6,
    6,
    6,
    6,
    6,
    1,
    1,
    1,
    6,
    6,
    6,
    1,
    1,
    1,
    6,
    6,
    6,
    6,
    6,
    6,
    1,
    1,
    6,
    6,
    1,
    1,
    1,
    1,
    6,
    6,
    6,
    6,
    6,
    6,
    1,
    1,
    1,
    6,
    6,
    6,
    6,
    6,
    6,
    6,
    6,
    6,
    6,
    6,
    6,
    6,
    6,
    6,
    6,
    6,
    6,
    6,
    6,
    6,
    6,
    6,
    6,
    6,
    6,
    6,
    6,
    6,
    6,
    6,
    6,
    6,
    6,
    1,
    1,
    1,
    1,
    1,
    1,
    1,
    1,
    1,
    1,
    1,
    1,
    2,
    2,
    1,
    1,
    1,
    1,
    1,
    2,
    2,
    2,
    2,
    2,
    2,
    2,
    2,
    2,
    2,
    2,
    2,
    2,
    6,
    6,
    6,
    6,
    6,
    6,
    6,
    6,
    6,
    1,
    1,
    1,
    1,
    1,
    1,
    1,
    1,
    1,
    1,
    1,
    1,
    1,
    1,
    1,
    1,
    1,
    1,
    1,
    1,
    1,
    1,
    1,
    1,
    1,
    1,
    1,
    1,
    1,
    1,
    1,
    1,
    1,
    1,
    1,
    1,
    1,
    1,
    1,
    1,
    1,
    1,
    1,
    1,
    1,
    1,
    1,
    1,
    1,
    1,
    1,
    1,
    1,
    1,
    1,
    1,
    1,
    1,
    1,
    1,
    1,
    1,
    1,
    1,
    1,
    1,
    1,
    1,
    1,
    1,
    1,
    1,
    1,
    1,
    1,
    1,
    1,
    1,
    1,
    1,
    1,
    1,
    1,
    1,
    1,
    1,
    1,
    1,
    1,
    1,
    1,
    1,
    1,
    1,
    1,
    1,
    1,
    1,
    1,
    1,
    1,
    1,
    1,
    1,
    1,
    1,
    1,
    1,
    1,
    1,
    1,
    1,
    1,
    1,
    1,
    1,
    1,
    1,
    1,
    1,
    1,
    1,
    1,
    1,
    1,
    1,
    1,
    1,
    1,
    1,
    1,
    1,
    1,
    1,
    1,
    1,
    1,
    1,
    1,
    1,
    1,
    1,
    1,
    1,
    1,
    1,
    1,
    1,
    1,
    1,
    1,
    1,
    1,
    1,
    1,
    1,
    1,
    1,
    1,
    1,
    1,
    1,
    1,
    1,
    1,
    1,
    1,
    1,
    1,
    1,
    1,
    1,
    1,
    1,
    1,
    1,
    1,
    1,
    1,
    1,
    1,
    1,
    1,
    1,
    1,
    1,
    1,
    1,
    1,
    1,
    1,
    1,
    1,
    1,
    1,
    1,
    1,
    1,
    1,
    1,
    1,
    1,
    1,
    1,
    1,
    1,
    1,
    1,
    1,
    1,
    1,
    1,
    1,
    1,
    1,
    1,
    1,
    1,
    1,
    1,
    1,
    1,
    1,
    1,
    1,
    1,
    1,
    1,
    1,
    1,
    1,
    1,
    1,
    1,
    1,
    1,
    1,
    1,
    1,
    1,
    1,
    1,
    1,
    1,
    1,
    1,
    1,
    1,
    1,
    1,
    1,
    1,
    1,
    1,
    1,
    1,
    1,
    1,
    1,
    1,
    1,
    1,
    1,
    1,
    1,
    1,
    1,
    1,
    1,
    1,
    1,
    1,
    1,
    1,
    1,
    1,
    1,
    1,
    1,
    1,
    1,
    1,
    1,
    1,
    1,
    1,
    1,
    1,
    1,
    1,
    1,
    1,
    1,
    1,
    1,
    1,
    1,
    1,
    1,
    1
   ],
   "height": 17,
   "id": 1,
   "name": "Background",
   "opacity": 1,
   "type": "tilelayer",
   "visible": true,
   "width": 150,
   "x": 0,
   "y": 0,
   "properties": [
    {
     "name": "palette",
     "type": "string",
     "value": "underground",
     "propertytype": "BgPalette"
    }
   ]
  },
  {
   "draworder": "topdown",
   "id": 2,
   "name": "Objects",
   "objects": [
    {
     "height": 20,
     "id": 1,
     "name": "Player Start",
     "opacity": 1,
     "rotation": 0,
     "type": "Player Start",
     "visible": true,
     "width": 16,
     "x": 33.10344827586207,
     "y": 23.172413793103445
    }
   ],
   "opacity": 1,
   "type": "objectgroup",
   "visible": true,
   "x": 0,
   "y": 0
  },
  {
   "draworder": "topdown",
   "id": 3,
   "name": "Enemies",
   "objects": [
    {
     "height": 16,
     "id": 2,
     "name": "tall enemy 29,10",
     "opacity": 1,
     "properties": [
      {
       "name": "dir",
       "type": "int",
       "value": -1
      },
      {
       "name": "enemy_kind",
       "type": "string",
       "value": "walker",
       "propertytype": "EnemyKind"
      },
      {
       "name": "enemy_sprite",
       "type": "string",
       "value": "tall",
       "propertytype": "EnemySprite"
      }
     ],
     "rotation": 0,
     "type": "Enemy",
     "visible": true,
     "width": 16,
     "x": 464,
     "y": 160
    },
    {
     "height": 16,
     "id": 3,
     "name": "ghost enemy 10,12",
     "opacity": 1,
     "properties": [
      {
       "name": "dir",
       "type": "int",
       "value": -1
      },
      {
       "name": "enemy_kind",
       "type": "string",
       "value": "walker",
       "propertytype": "EnemyKind"
      },
      {
       "name": "enemy_sprite",
       "type": "string",
       "value": "ghost",
       "propertytype": "EnemySprite"
      }
     ],
     "rotation": 0,
     "type": "Enemy",
     "visible": true,
     "width": 16,
     "x": 160,
     "y": 192
    },
    {
     "height": 16,
     "id": 4,
     "name": "ghost enemy 12,12",
     "opacity": 1,
     "properties": [
      {
       "name": "dir",
       "type": "int",
       "value": -1
      },
      {
       "name": "enemy_kind",
       "type": "string",
       "value": "walker",
       "propertytype": "EnemyKind"
      },
      {
       "name": "enemy_sprite",
       "type": "string",
       "value": "ghost",
       "propertytype": "EnemySprite"
      }
     ],
     "rotation": 0,
     "type": "Enemy",
     "visible": true,
     "width": 16,
     "x": 192,
     "y": 192
    },
    {
     "height": 16,
     "id": 5,
     "name": "ghost enemy 22,12",
     "opacity": 1,
     "properties": [
      {
       "name": "dir",
       "type": "int",
       "value": -1
      },
      {
       "name": "enemy_kind",
       "type": "string",
       "value": "walker",
       "propertytype": "EnemyKind"
      },
      {
       "name": "enemy_sprite",
       "type": "string",
       "value": "ghost",
       "propertytype": "EnemySprite"
      }
     ],
     "rotation": 0,
     "type": "Enemy",
     "visible": true,
     "width": 16,
     "x": 352,
     "y": 192
    },
    {
     "height": 16,
     "id": 6,
     "name": "ghost enemy 36,12",
     "opacity": 1,
     "properties": [
      {
       "name": "dir",
       "type": "int",
       "value": -1
      },
      {
       "name": "enemy_kind",
       "type": "string",
       "value": "walker",
       "propertytype": "EnemyKind"
      },
      {
       "name": "enemy_sprite",
       "type": "string",
       "value": "ghost",
       "propertytype": "EnemySprite"
      }
     ],
     "rotation": 0,
     "type": "Enemy",
     "visible": true,
     "width": 16,
     "x": 576,
     "y": 192
    },
    {
     "height": 16,
     "id": 7,
     "name": "ghost enemy 37,12",
     "opacity": 1,
     "properties": [
      {
       "name": "dir",
       "type": "int",
       "value": -1
      },
      {
       "name": "enemy_kind",
       "type": "string",
       "value": "walker",
       "propertytype": "EnemyKind"
      },
      {
       "name": "enemy_sprite",
       "type": "string",
       "value": "ghost",
       "propertytype": "EnemySprite"
      }
     ],
     "rotation": 0,
     "type": "Enemy",
     "visible": true,
     "width": 16,
     "x": 592,
     "y": 192
    },
    {
     "height": 16,
     "id": 8,
     "name": "ghost enemy 38,12",
     "opacity": 1,
     "properties": [
      {
       "name": "dir",
       "type": "int",
       "value": -1
      },
      {
       "name": "enemy_kind",
       "type": "string",
       "value": "walker",
       "propertytype": "EnemyKind"
      },
      {
       "name": "enemy_sprite",
       "type": "string",
       "value": "ghost",
       "propertytype": "EnemySprite"
      }
     ],
     "rotation": 0,
     "type": "Enemy",
     "visible": true,
     "width": 16,
     "x": 608,
     "y": 192
    }
   ],
   "opacity": 1,
   "type": "objectgroup",
   "visible": true,
   "x": 0,
   "y": 0
  },
  {
   "draworder": "topdown",
   "id": 4,
   "name": "Traps",
   "objects": [
    {
     "height": 16,
     "id": 9,
     "name": "invisible block 26,5",
     "opacity": 1,
     "properties": [
      {
       "name": "collision",
       "type": "int",
       "value": 0,
       "propertytype": "LevelCollision"
      },
      {
       "name": "hidden",
       "type": "bool",
       "value": true
      },
      {
       "name": "source_x",
       "type": "int",
       "value": 26
      },
      {
       "name": "source_y",
       "type": "int",
       "value": 5
      },
      {
       "name": "subtype",
       "type": "string",
       "value": "invisible_reveal",
       "propertytype": "TrapSubtype"
      },
      {
       "name": "trap_type",
       "type": "string",
       "value": "invisible_block",
       "propertytype": "TrapKind"
      },
      {
       "name": "visual_palette",
       "type": "string",
       "value": "underground",
       "propertytype": "BgPalette"
      }
     ],
     "rotation": 0,
     "type": "Trap",
     "visible": true,
     "width": 16,
     "x": 416,
     "y": 80
    },
    {
     "height": 16,
     "id": 10,
     "name": "invisible block 19,8",
     "opacity": 1,
     "properties": [
      {
       "name": "collision",
       "type": "int",
       "value": 0,
       "propertytype": "LevelCollision"
      },
      {
       "name": "hidden",
       "type": "bool",
       "value": true
      },
      {
       "name": "source_x",
       "type": "int",
       "value": 19
      },
      {
       "name": "source_y",
       "type": "int",
       "value": 8
      },
      {
       "name": "subtype",
       "type": "string",
       "value": "invisible_reveal",
       "propertytype": "TrapSubtype"
      },
      {
       "name": "trap_type",
       "type": "string",
       "value": "invisible_block",
       "propertytype": "TrapKind"
      },
      {
       "name": "visual_palette",
       "type": "string",
       "value": "underground",
       "propertytype": "BgPalette"
      }
     ],
     "rotation": 0,
     "type": "Trap",
     "visible": true,
     "width": 16,
     "x": 304,
     "y": 128
    },
    {
     "height": 16,
     "id": 11,
     "name": "invisible block 123,8",
     "opacity": 1,
     "properties": [
      {
       "name": "collision",
       "type": "int",
       "value": 0,
       "propertytype": "LevelCollision"
      },
      {
       "name": "hidden",
       "type": "bool",
       "value": true
      },
      {
       "name": "source_x",
       "type": "int",
       "value": 123
      },
      {
       "name": "source_y",
       "type": "int",
       "value": 8
      },
      {
       "name": "subtype",
       "type": "string",
       "value": "invisible_reveal",
       "propertytype": "TrapSubtype"
      },
      {
       "name": "trap_type",
       "type": "string",
       "value": "invisible_block",
       "propertytype": "TrapKind"
      },
      {
       "name": "visual_palette",
       "type": "string",
       "value": "underground",
       "propertytype": "BgPalette"
      }
     ],
     "rotation": 0,
     "type": "Trap",
     "visible": true,
     "width": 16,
     "x": 1968,
     "y": 128
    },
    {
     "height": 16,
     "id": 12,
     "name": "invisible block 124,8",
     "opacity": 1,
     "properties": [
      {
       "name": "collision",
       "type": "int",
       "value": 0,
       "propertytype": "LevelCollision"
      },
      {
       "name": "hidden",
       "type": "bool",
       "value": true
      },
      {
       "name": "source_x",
       "type": "int",
       "value": 124
      },
      {
       "name": "source_y",
       "type": "int",
       "value": 8
      },
      {
       "name": "subtype",
       "type": "string",
       "value": "invisible_reveal",
       "propertytype": "TrapSubtype"
      },
      {
       "name": "trap_type",
       "type": "string",
       "value": "invisible_block",
       "propertytype": "TrapKind"
      },
      {
       "name": "visual_palette",
       "type": "string",
       "value": "underground",
       "propertytype": "BgPalette"
      }
     ],
     "rotation": 0,
     "type": "Trap",
     "visible": true,
     "width": 16,
     "x": 1984,
     "y": 128
    },
    {
     "height": 16,
     "id": 13,
     "name": "invisible block 125,8",
     "opacity": 1,
     "properties": [
      {
       "name": "collision",
       "type": "int",
       "value": 0,
       "propertytype": "LevelCollision"
      },
      {
       "name": "hidden",
       "type": "bool",
       "value": true
      },
      {
       "name": "source_x",
       "type": "int",
       "value": 125
      },
      {
       "name": "source_y",
       "type": "int",
       "value": 8
      },
      {
       "name": "subtype",
       "type": "string",
       "value": "invisible_reveal",
       "propertytype": "TrapSubtype"
      },
      {
       "name": "trap_type",
       "type": "string",
       "value": "invisible_block",
       "propertytype": "TrapKind"
      },
      {
       "name": "visual_palette",
       "type": "string",
       "value": "underground",
       "propertytype": "BgPalette"
      }
     ],
     "rotation": 0,
     "type": "Trap",
     "visible": true,
     "width": 16,
     "x": 2000,
     "y": 128
    },
    {
     "height": 16,
     "id": 14,
     "name": "invisible block 126,8",
     "opacity": 1,
     "properties": [
      {
       "name": "collision",
       "type": "int",
       "value": 0,
       "propertytype": "LevelCollision"
      },
      {
       "name": "hidden",
       "type": "bool",
       "value": true
      },
      {
       "name": "source_x",
       "type": "int",
       "value": 126
      },
      {
       "name": "source_y",
       "type": "int",
       "value": 8
      },
      {
       "name": "subtype",
       "type": "string",
       "value": "invisible_reveal",
       "propertytype": "TrapSubtype"
      },
      {
       "name": "trap_type",
       "type": "string",
       "value": "invisible_block",
       "propertytype": "TrapKind"
      },
      {
       "name": "visual_palette",
       "type": "string",
       "value": "underground",
       "propertytype": "BgPalette"
      }
     ],
     "rotation": 0,
     "type": "Trap",
     "visible": true,
     "width": 16,
     "x": 2016,
     "y": 128
    },
    {
     "height": 16,
     "id": 15,
     "name": "invisible block 127,8",
     "opacity": 1,
     "properties": [
      {
       "name": "collision",
       "type": "int",
       "value": 0,
       "propertytype": "LevelCollision"
      },
      {
       "name": "hidden",
       "type": "bool",
       "value": true
      },
      {
       "name": "source_x",
       "type": "int",
       "value": 127
      },
      {
       "name": "source_y",
       "type": "int",
       "value": 8
      },
      {
       "name": "subtype",
       "type": "string",
       "value": "invisible_reveal",
       "propertytype": "TrapSubtype"
      },
      {
       "name": "trap_type",
       "type": "string",
       "value": "invisible_block",
       "propertytype": "TrapKind"
      },
      {
       "name": "visual_palette",
       "type": "string",
       "value": "underground",
       "propertytype": "BgPalette"
      }
     ],
     "rotation": 0,
     "type": "Trap",
     "visible": true,
     "width": 16,
     "x": 2032,
     "y": 128
    },
    {
     "height": 16,
     "id": 16,
     "name": "invisible block 21,9",
     "opacity": 1,
     "properties": [
      {
       "name": "collision",
       "type": "int",
       "value": 0,
       "propertytype": "LevelCollision"
      },
      {
       "name": "hidden",
       "type": "bool",
       "value": true
      },
      {
       "name": "source_x",
       "type": "int",
       "value": 21
      },
      {
       "name": "source_y",
       "type": "int",
       "value": 9
      },
      {
       "name": "subtype",
       "type": "string",
       "value": "invisible_reveal",
       "propertytype": "TrapSubtype"
      },
      {
       "name": "trap_type",
       "type": "string",
       "value": "invisible_block",
       "propertytype": "TrapKind"
      },
      {
       "name": "visual_palette",
       "type": "string",
       "value": "underground",
       "propertytype": "BgPalette"
      }
     ],
     "rotation": 0,
     "type": "Trap",
     "visible": true,
     "width": 16,
     "x": 336,
     "y": 144
    },
    {
     "height": 16,
     "id": 17,
     "name": "invisible block 22,9",
     "opacity": 1,
     "properties": [
      {
       "name": "collision",
       "type": "int",
       "value": 0,
       "propertytype": "LevelCollision"
      },
      {
       "name": "hidden",
       "type": "bool",
       "value": true
      },
      {
       "name": "source_x",
       "type": "int",
       "value": 22
      },
      {
       "name": "source_y",
       "type": "int",
       "value": 9
      },
      {
       "name": "subtype",
       "type": "string",
       "value": "invisible_reveal",
       "propertytype": "TrapSubtype"
      },
      {
       "name": "trap_type",
       "type": "string",
       "value": "invisible_block",
       "propertytype": "TrapKind"
      },
      {
       "name": "visual_palette",
       "type": "string",
       "value": "underground",
       "propertytype": "BgPalette"
      }
     ],
     "rotation": 0,
     "type": "Trap",
     "visible": true,
     "width": 16,
     "x": 352,
     "y": 144
    },
    {
     "height": 16,
     "id": 18,
     "name": "invisible block 23,9",
     "opacity": 1,
     "properties": [
      {
       "name": "collision",
       "type": "int",
       "value": 0,
       "propertytype": "LevelCollision"
      },
      {
       "name": "hidden",
       "type": "bool",
       "value": true
      },
      {
       "name": "source_x",
       "type": "int",
       "value": 23
      },
      {
       "name": "source_y",
       "type": "int",
       "value": 9
      },
      {
       "name": "subtype",
       "type": "string",
       "value": "invisible_reveal",
       "propertytype": "TrapSubtype"
      },
      {
       "name": "trap_type",
       "type": "string",
       "value": "invisible_block",
       "propertytype": "TrapKind"
      },
      {
       "name": "visual_palette",
       "type": "string",
       "value": "underground",
       "propertytype": "BgPalette"
      }
     ],
     "rotation": 0,
     "type": "Trap",
     "visible": true,
     "width": 16,
     "x": 368,
     "y": 144
    },
    {
     "height": 16,
     "id": 19,
     "name": "invisible block 24,9",
     "opacity": 1,
     "properties": [
      {
       "name": "collision",
       "type": "int",
       "value": 0,
       "propertytype": "LevelCollision"
      },
      {
       "name": "hidden",
       "type": "bool",
       "value": true
      },
      {
       "name": "source_x",
       "type": "int",
       "value": 24
      },
      {
       "name": "source_y",
       "type": "int",
       "value": 9
      },
      {
       "name": "subtype",
       "type": "string",
       "value": "invisible_reveal",
       "propertytype": "TrapSubtype"
      },
      {
       "name": "trap_type",
       "type": "string",
       "value": "invisible_block",
       "propertytype": "TrapKind"
      },
      {
       "name": "visual_palette",
       "type": "string",
       "value": "underground",
       "propertytype": "BgPalette"
      }
     ],
     "rotation": 0,
     "type": "Trap",
     "visible": true,
     "width": 16,
     "x": 384,
     "y": 144
    },
    {
     "height": 16,
     "id": 20,
     "name": "invisible block 72,10",
     "opacity": 1,
     "properties": [
      {
       "name": "collision",
       "type": "int",
       "value": 0,
       "propertytype": "LevelCollision"
      },
      {
       "name": "hidden",
       "type": "bool",
       "value": true
      },
      {
       "name": "source_x",
       "type": "int",
       "value": 72
      },
      {
       "name": "source_y",
       "type": "int",
       "value": 10
      },
      {
       "name": "subtype",
       "type": "string",
       "value": "invisible_reveal",
       "propertytype": "TrapSubtype"
      },
      {
       "name": "trap_type",
       "type": "string",
       "value": "invisible_block",
       "propertytype": "TrapKind"
      },
      {
       "name": "visual_palette",
       "type": "string",
       "value": "underground",
       "propertytype": "BgPalette"
      }
     ],
     "rotation": 0,
     "type": "Trap",
     "visible": true,
     "width": 16,
     "x": 1152,
     "y": 160
    },
    {
     "height": 16,
     "id": 21,
     "name": "invisible block 2,12",
     "opacity": 1,
     "properties": [
      {
       "name": "collision",
       "type": "int",
       "value": 0,
       "propertytype": "LevelCollision"
      },
      {
       "name": "hidden",
       "type": "bool",
       "value": true
      },
      {
       "name": "source_x",
       "type": "int",
       "value": 2
      },
      {
       "name": "source_y",
       "type": "int",
       "value": 12
      },
      {
       "name": "subtype",
       "type": "string",
       "value": "invisible_reveal",
       "propertytype": "TrapSubtype"
      },
      {
       "name": "trap_type",
       "type": "string",
       "value": "invisible_block",
       "propertytype": "TrapKind"
      },
      {
       "name": "visual_palette",
       "type": "string",
       "value": "underground",
       "propertytype": "BgPalette"
      }
     ],
     "rotation": 0,
     "type": "Trap",
     "visible": true,
     "width": 16,
     "x": 32,
     "y": 192
    },
    {
     "height": 16,
     "id": 22,
     "name": "invisible block 39,12",
     "opacity": 1,
     "properties": [
      {
       "name": "collision",
       "type": "int",
       "value": 0,
       "propertytype": "LevelCollision"
      },
      {
       "name": "hidden",
       "type": "bool",
       "value": true
      },
      {
       "name": "source_x",
       "type": "int",
       "value": 39
      },
      {
       "name": "source_y",
       "type": "int",
       "value": 12
      },
      {
       "name": "subtype",
       "type": "string",
       "value": "invisible_reveal",
       "propertytype": "TrapSubtype"
      },
      {
       "name": "trap_type",
       "type": "string",
       "value": "invisible_block",
       "propertytype": "TrapKind"
      },
      {
       "name": "visual_palette",
       "type": "string",
       "value": "underground",
       "propertytype": "BgPalette"
      }
     ],
     "rotation": 0,
     "type": "Trap",
     "visible": true,
     "width": 16,
     "x": 624,
     "y": 192
    },
    {
     "height": 16,
     "id": 23,
     "name": "default coin question 79,5",
     "opacity": 1,
     "properties": [
      {
       "name": "collision",
       "type": "int",
       "value": 1,
       "propertytype": "LevelCollision"
      },
      {
       "name": "hidden",
       "type": "bool",
       "value": false
      },
      {
       "name": "source_x",
       "type": "int",
       "value": 79
      },
      {
       "name": "source_y",
       "type": "int",
       "value": 5
      },
      {
       "name": "subtype",
       "type": "string",
       "value": "none",
       "propertytype": "TrapSubtype"
      },
      {
       "name": "trap_type",
       "type": "string",
       "value": "question_block",
       "propertytype": "TrapKind"
      },
      {
       "name": "visual_palette",
       "type": "string",
       "value": "underground",
       "propertytype": "BgPalette"
      },
      {
       "name": "visual_metatile",
       "type": "int",
       "value": 2
      }
     ],
     "rotation": 0,
     "type": "Trap",
     "visible": true,
     "width": 16,
     "x": 1264,
     "y": 80
    },
    {
     "height": 16,
     "id": 24,
     "name": "default coin question 8,9",
     "opacity": 1,
     "properties": [
      {
       "name": "collision",
       "type": "int",
       "value": 1,
       "propertytype": "LevelCollision"
      },
      {
       "name": "hidden",
       "type": "bool",
       "value": false
      },
      {
       "name": "source_x",
       "type": "int",
       "value": 8
      },
      {
       "name": "source_y",
       "type": "int",
       "value": 9
      },
      {
       "name": "subtype",
       "type": "string",
       "value": "none",
       "propertytype": "TrapSubtype"
      },
      {
       "name": "trap_type",
       "type": "string",
       "value": "question_block",
       "propertytype": "TrapKind"
      },
      {
       "name": "visual_palette",
       "type": "string",
       "value": "underground",
       "propertytype": "BgPalette"
      },
      {
       "name": "visual_metatile",
       "type": "int",
       "value": 2
      }
     ],
     "rotation": 0,
     "type": "Trap",
     "visible": true,
     "width": 16,
     "x": 128,
     "y": 144
    },
    {
     "height": 16,
     "id": 25,
     "name": "default coin question 9,9",
     "opacity": 1,
     "properties": [
      {
       "name": "collision",
       "type": "int",
       "value": 1,
       "propertytype": "LevelCollision"
      },
      {
       "name": "hidden",
       "type": "bool",
       "value": false
      },
      {
       "name": "source_x",
       "type": "int",
       "value": 9
      },
      {
       "name": "source_y",
       "type": "int",
       "value": 9
      },
      {
       "name": "subtype",
       "type": "string",
       "value": "none",
       "propertytype": "TrapSubtype"
      },
      {
       "name": "trap_type",
       "type": "string",
       "value": "question_block",
       "propertytype": "TrapKind"
      },
      {
       "name": "visual_palette",
       "type": "string",
       "value": "underground",
       "propertytype": "BgPalette"
      },
      {
       "name": "visual_metatile",
       "type": "int",
       "value": 2
      }
     ],
     "rotation": 0,
     "type": "Trap",
     "visible": true,
     "width": 16,
     "x": 144,
     "y": 144
    }
   ],
   "opacity": 1,
   "type": "objectgroup",
   "visible": true,
   "x": 0,
   "y": 0
  }
 ],
 "nextlayerid": 5,
 "nextobjectid": 26,
 "tiledversion": "1.12.2",
 "version": "1.11",
 "tilesets": [
  {
   "columns": 1,
   "firstgid": 1,
   "image": "../gfx/tiles_16.png",
   "imageheight": 1280,
   "imagewidth": 16,
   "margin": 0,
   "name": "tiles_16",
   "spacing": 0,
   "tilecount": 80,
   "tileheight": 16,
   "tilewidth": 16
  }
 ]
}